X: 35496
T: Rubber Band, The
R: slide
M: 12/8
K: Dmajor
FAF E2D2<F2 F2A|BdB A2B2<d2 d2A|
def d2B2<A2 AFA|BAF A2F2<E2 E2G|
FAF E2D2<F2 F2A|BdB A2B2<d2 d2A|
def d2B2<A2 A2F|DEF E2F2<D2 D2B|
A2F A2B AFE D2B|AFA2<B2 BAF E2B|
A2F A2B AFE2<D2|d2B AFE FDD D2B|
A2F A2B AFE D2B|AFA2<B2 BAF E2B|
A2F A2B AFE Dfe|d2B AFE FDD D2E|

